X:1
T:K.V. 487/1
M:2/4
L:1/8
K:F major
V:1
A | cB AG | F2 z F | GG (GG/2A/2) | F2 z F | GG (GG/2A/2) | FG/2A/2 B/2c/2d/2e/2 | (fd) (A=B) |
V:2
F | AG FC | A,2 z A, | CC CC | A,2 z A, | CC CC | A,2 z2 | F4 |
V:1
c2 z c | (d/2e/2)f/2d/2 (=B/2c/2)d/2b/2 | c/2d/2e/2f/2 g/2e/2d/2c/2 | (d/2e/2)f/2d/2 (=B/2c/2)d/2B/2 | c2 z :: C | c3 A| d3 c |
V:2
eg eg | fg fg | eg eg | fg fg | e2 z :: z | z F, F2- | FD G2- |
V:1
B3 G | c3 B | A3 F-| F B2 A- | A G2 F | c2 z A | cB AG | (F/2G/2)A/2B/2 c/2d/2e/2f/2 | e4 |
V:2
GF E2- | EC F2- | FE _E2 | D2 C2 | B,2 =B,2 | C2 z F | AG FC | A,2 z A | BG cB |
V:1
(f/2g/2)a/2b/2 c'/2a/2g/2f/2 | e4 | f z c z | B z G z | F2 z C | FF FC | AA AF | C2 G3/2A/2 | F2 z :|]
V:2
A2 z A | BG cB | A z A z | G z C z | A,2 z [K:clef=bass] C, | F,F, F,C, | A,A, A,F, | C2 C,2 | F,2 z :|]

